X:69
T:Little Stack of Barley, The
R:hornpipe
I:speed 250
E:7
M:C|
K:G
gf|eged BedB|AGEG AcBA|GFGA BA(3Bcd|eAAG A2(3Bcd|\
efed BedB|AGEG AcBA|GFGA (3Bcd Ac|BGGF G2:|*
A|(3Bcd ef g2fg|a2gf edBd|g2fg edBd|(3efg dB A3z|\
agfa gfed|BAAG AcBA|GFGA (3Bcd Ac|BGGF G3:|**
<end>
<start>
